X: 279
T: Ha-tikva
O: Eastern European Jewish
M: C
L: 1/8
K: Em
|: "Em"EF GA B2 B2 | "Am"cB ce "Em"B4 | "Am"A2 AF "Em"G2 G2 |1 "B7"FE FG "Em"E2 zB, :|2 "B7"FE FG "Em"E4 
| "Em"E2 e2 "C"e2 e2 | "D7"de dc "G"B2- "B7"B2 | "Em"E2 e2 "C"e2 e2 | "D7"de dc "G"B4 
| "G"d2 d2 G2 G2 | "D7"AB cd "G"BA G2 | "Am"A2 A2 "Em"G2 G2 | "B7"FE FG "Em"E4 
| "Am"A2 AF "Em"G2 G2 | "D7"AB cd "G"BA G2 | "Am"A2 A2 "Em"G2 G2 | "B7"FE FG "Em"E4 |]



